X: 36916
T: Shooting
R: slip jig
M: 9/8
K: Gmajor
D|:G2G BAG Bd2|ABA A2B c2d|
edc BAG Bd2|1 FED cBA G2D:|2 FED cBA G2c||
|:d2B A2G GAB|dcB BAG A2B|
d2B A2G Bd2|1 DED B2A G2c:|2 DED B2A G2||

